images/foooter-backgroundimg.svg

<svg width="527" height="649" viewBox="0 0 527 649" fill="none" xmlns="http://www.w3.org/2000/svg">
<g clip-path="url(#clip0_12413_2)">
<path fill-rule="evenodd" clip-rule="evenodd" d="M186.361 616.675C262.064 640.368 339.904 679.887 419.596 607.705C499.289 535.523 549.39 472.291 517.036 390.478C484.682 308.664 352.614 359.623 314.242 286.501C275.869 213.379 360.183 147.016 323.833 81.9376C287.484 16.8597 259.534 -24.8494 142.718 16.5292C25.9022 57.9078 36.6727 163.193 -52.1601 224.847C-140.993 286.501 -237.104 378.8 -105.206 543.494C26.6915 708.188 110.659 592.981 186.361 616.675Z" stroke="#E4E4E4"/>
<path fill-rule="evenodd" clip-rule="evenodd" d="M176.895 578.751C238.478 597.991 301.8 630.081 366.629 571.468C431.457 512.854 472.214 461.509 445.895 395.075C419.575 328.641 312.14 370.02 280.924 310.644C249.708 251.268 318.296 197.379 288.726 144.535C259.157 91.6904 236.42 57.8219 141.392 91.4221C46.3638 125.022 55.1254 210.516 -17.1389 260.58C-89.4031 310.644 -167.588 385.592 -60.2912 519.327C47.0059 653.062 115.312 559.511 176.895 578.751Z" stroke="#E4E4E4"/>
<path fill-rule="evenodd" clip-rule="evenodd" d="M159.188 553.583C209.15 569.281 260.522 595.465 313.117 547.64C365.711 499.815 398.777 457.92 377.424 403.714C356.071 349.508 268.91 383.271 243.586 334.824C218.261 286.376 273.905 242.406 249.916 199.288C225.926 156.171 207.48 128.536 130.385 155.952C53.2899 183.367 60.398 253.125 1.77097 293.974C-56.8561 334.824 -120.287 395.977 -33.238 505.096C53.8108 614.215 109.227 537.884 159.188 553.583Z" stroke="#E4E4E4"/>
<path fill-rule="evenodd" clip-rule="evenodd" d="M140.684 522.816C180.979 535.412 222.412 556.419 264.831 518.048C307.25 479.677 333.918 446.064 316.696 402.573C299.475 359.082 229.178 386.171 208.753 347.3C188.328 308.43 233.206 273.152 213.858 238.557C194.51 203.962 179.633 181.79 117.454 203.787C55.2751 225.783 61.008 281.752 13.724 314.526C-33.56 347.3 -84.7182 396.365 -14.5115 483.914C55.6952 571.464 100.389 510.221 140.684 522.816Z" stroke="#E4E4E4"/>
<path fill-rule="evenodd" clip-rule="evenodd" d="M135.917 502.954C168.827 513.249 202.666 530.421 237.31 499.057C271.953 467.692 293.734 440.217 279.668 404.668C265.603 369.119 208.191 391.261 191.51 359.489C174.828 327.717 211.481 298.88 195.679 270.603C179.877 242.326 167.727 224.203 116.945 242.182C66.1627 260.162 70.8448 305.91 32.2274 332.699C-6.39001 359.489 -48.1715 399.594 9.16714 471.156C66.5058 542.718 103.008 492.659 135.917 502.954Z" stroke="#E4E4E4"/>
<path fill-rule="evenodd" clip-rule="evenodd" d="M126.775 488.594C153.493 496.954 180.966 510.899 209.093 485.429C237.22 459.959 254.903 437.648 243.483 408.78C232.064 379.912 185.452 397.893 171.909 372.092C158.365 346.291 188.123 322.875 175.294 299.912C162.465 276.949 152.6 262.232 111.371 276.832C70.142 291.433 73.9433 328.583 42.5906 350.337C11.2378 372.092 -22.6838 404.66 23.8684 462.772C70.4205 520.884 100.056 480.234 126.775 488.594Z" stroke="#E4E4E4"/>
</g>
<defs>
<clipPath id="clip0_12413_2">
<rect width="697" height="649" fill="white" transform="translate(-170)"/>
</clipPath>
</defs>
</svg>

<svg xmlns="http://www.w3.org/2000/svg" width="527" height="649" fill="none"><g stroke="#E4E4E4" clip-path="url(#a)" clip-rule="evenodd"><path d="M186.361 616.675c75.703 23.693 153.543 63.212 233.235-8.97 79.693-72.182 129.794-135.414 97.44-217.227-32.354-81.814-164.422-30.855-202.794-103.977-38.373-73.122 45.941-139.485 9.591-204.563C287.484 16.86 259.534-24.85 142.718 16.529 25.902 57.908 36.673 163.193-52.16 224.847c-88.833 61.654-184.944 153.953-53.046 318.647s215.865 49.487 291.567 73.181Z"/><path d="M176.895 578.751c61.583 19.24 124.905 51.33 189.734-7.283 64.828-58.614 105.585-109.959 79.266-176.393-26.32-66.434-133.755-25.055-164.971-84.431-31.216-59.376 37.372-113.265 7.802-166.109-29.569-52.845-52.306-86.713-147.334-53.113-95.028 33.6-86.267 119.094-158.53 169.158-72.265 50.064-150.45 125.012-43.153 258.747s175.603 40.184 237.186 59.424Z"/><path d="M159.188 553.583c49.962 15.698 101.334 41.882 153.929-5.943 52.594-47.825 85.66-89.72 64.307-143.926-21.353-54.206-108.514-20.443-133.838-68.89-25.325-48.448 30.319-92.418 6.33-135.536-23.99-43.117-42.436-70.752-119.531-43.336C53.29 183.367 60.398 253.125 1.771 293.974c-58.627 40.85-122.058 102.003-35.009 211.122 87.049 109.119 142.465 32.788 192.426 48.487Z"/><path d="M140.684 522.816c40.295 12.596 81.728 33.603 124.147-4.768 42.419-38.371 69.087-71.984 51.865-115.475-17.221-43.491-87.518-16.402-107.943-55.273-20.425-38.87 24.453-74.148 5.105-108.743s-34.225-56.767-96.404-34.77c-62.179 21.996-56.446 77.965-103.73 110.739-47.284 32.774-98.442 81.839-28.235 169.388 70.206 87.55 114.9 26.307 155.195 38.902Z"/><path d="M135.917 502.954c32.91 10.295 66.749 27.467 101.393-3.897 34.643-31.365 56.424-58.84 42.358-94.389-14.065-35.549-71.477-13.407-88.158-45.179-16.682-31.772 19.971-60.609 4.169-88.886-15.802-28.277-27.952-46.4-78.734-28.421-50.782 17.98-46.1 63.728-84.718 90.517-38.617 26.79-80.398 66.895-23.06 138.457 57.339 71.562 93.841 21.503 126.75 31.798Z"/><path d="M126.775 488.594c26.718 8.36 54.191 22.305 82.318-3.165 28.127-25.47 45.81-47.781 34.39-76.649-11.419-28.868-58.031-10.887-71.574-36.688-13.544-25.801 16.214-49.217 3.385-72.18-12.829-22.963-22.694-37.68-63.923-23.08-41.229 14.601-37.428 51.751-68.78 73.505-31.353 21.755-65.275 54.323-18.723 112.435 46.553 58.112 76.188 17.462 102.907 25.822Z"/></g><defs><clipPath id="a"><path fill="#fff" d="M-170 0h697v649h-697z"/></clipPath></defs></svg>
